X:1
T:Praise the Name of Christ
T:Praise the Name of Christ
T:Adam Geibel
T:Belle M. Heyl, 1897
T:Public Domain Courtesy of the Cyber Hymnal™
T:Public Domain Courtesy of the Cyber Hymnal™
C:Adam Geibel
Z:Public Domain
Z:Courtesy of the Cyber Hymnal™
%%score ( 1 2 ) ( 3 4 )
L:1/8
Q:1/4=105
M:4/4
K:Bb
V:1 treble 
V:2 treble 
V:3 bass 
V:4 bass 
V:1
 [DF]2 [EG]2 [DF]2 [DB]2 | [Fd]2 [Ge]2 ([Fd]>[Ec]) [DB]2 | [Ec]2 [Fd]2 [DB]2 [DB]2 | %3
w: 1.~Praise the name of|Christ in Heav- * en,|Child- ren sing with|
w: 2.~Praise Him in the|ear- ly morn- * ing,|When by rest re-|
w: 3.~Praise Him when the|day is end- * ing,|When the wea- ry|
 [=EG]2 [Dd]2 c4 | [DF]2 [EG]2 [DF]2 [DB]2 | [Fd]2 [Ge]2 ([Fd]>[Ec]) [DB]2 | %6
w: glad ac- claim;|Praise Him du- ly,|serve Him tru- * ly,|
w: freshed a- new;|Na- ture wak- ing,|praise is mak- * ing,|
w: need re- pose;|Seek His bless- ing,|sin con- fess- * ing,|
 [DB]2 ([Ec][Fd]) [Ff]2 (e>d) | [Fd]2 [Ec]2 [DB]4 | G2 B2 A2 D2 | G2 B2 (A^F) D2 | %10
w: Spread a- * broad His *|glor- ious fame;|He so king- ly,|we so low- * ly,|
w: Let us * hum- bly *|wor- ship, too;|We so fee- ble,|He so glor- * ious,|
w: Ere in * sleep the *|eye- lids close;|While in safe- ty|we are sleep- * ing|
 [DG]2 [^FA]2 [GB]2 [GB]2 | [Gc]2 (Bc) [^Fd]2 !fermata![Fd]2 | [Fe]2 (dc) [Fd]2 [Ff]2 | %13
w: We so sin- ful,|He so * ho- ly;|Yet He, * self for-|
w: He o’er sin and|death vic- * tor- ious;|By the * hand He|
w: He is lov- ing|vi- gil * keep- ing;|Oh, a- * dore Him,|
 [Ge]2 (dc) [Fd]2 [DB]2 | ([EG][FA]) (Bc) [Fd]2 (fe) | [Fd]2 [Ec]2 [DB]4 |:"^Refrain" A6 d>B | %17
w: get- ting, * hears us|When * we * call up- *|on His name.||
w: kind- ly * leads us|All * our * earth- ly *|jour- ney through.|Glad hal- le-|
w: kneel be- * fore Him|As * His * child- ren, *|not His foes.||
 G4 [DF]2 z2 | [DF]2 [CE]>[=B,D] [CE]2 [EG]2 | [EG]2 [DF]>[^C=E] [DF]2 z2 | F6 d>B | %21
w: ||||
w: lu- jahs,|Joy- ful we bring to|Je- sus our king;|Glad hal- le-|
w: ||||
 G4 [DF]2 ([FB]>[FA]) |1 [=EG]2 [EA]2 [EB]2 [Ed]2 | [Fc]8 :|2 [EG]2 (ec) [FB]2 [FA]2 || [FB]8 |] %26
w: |||||
w: lu- jahs Be *|Thine for- ev- er-|more;|Thine for- * ev- er-|more.|
w: |||||
V:2
 x8 | x8 | x8 | x4 (F2 _E2) | x8 | x8 | x6 G2 | x8 | G2 B2 A2 D2 | G2 B2 A^F D2 | x8 | x2 G2 x4 | %12
 x2 F2 x4 | x2 F2 x4 | x2 F2 x G2 x | x8 |: (D2 D2 D2) x2 | (D2 D2) x4 | x8 | x8 | (D2 D2 D2) x2 | %21
 (D2 D2) x4 |1 x8 | x8 :|2 x2 G2 x4 || x8 |] %26
V:3
 [B,,B,]2 [B,,B,]2 [B,,B,]2 [B,,B,]2 | [B,,B,]2 [B,,B,]2 [B,,B,]2 [B,,B,]2 | %2
w: ~ ~ ~ ~|~ ~ ~ ~|
 [F,A,]2 [F,A,]2 [B,,B,]2 [B,,B,]2 | [B,,B,]2 [B,,B,]2 [F,A,]4 | %4
w: ~ ~ ~ ~|~ ~ ~|
 [B,,B,]2 [B,,B,]2 [B,,B,]2 [B,,B,]2 | [B,,B,]2 [B,,B,]2 [B,,B,]2 [B,,B,]2 | %6
w: ~ ~ ~ ~|~ ~ ~ ~|
 [B,,B,]2 [B,,B,]2 [D,B,]2 [E,B,]2 | [F,B,]2 [F,A,]2 [B,,B,]4 | G,2 B,2 A,2 D,2 | %9
w: ~ ~ ~ ~|~ ~ ~|~ ~ ~ ~|
 G,2 B,2 A,^F, D,2 | [G,B,]2 [D,D]2 [G,D]2 [G,D]2 | [E,G,]2 [E,G,]2 [D,A,]2 !fermata![D,A,]2 | %12
w: ~ ~ ~ ~ ~|~ ~ ~ ~|~ ~ ~ ~|
 [C,A,]2 [F,A,]2 [B,,B,]2 [D,B,]2 | [C,B,]2 [F,A,]2 [B,,B,]2 [B,,B,]2 | %14
w: ~ ~ ~ ~|~ ~ ~ ~|
 (B,C) ([D,B,][C,A,]) [B,,B,]2 [E,B,]2 | [F,B,]2 [F,A,]2 [B,,B,]4 |: %16
w: ~ * ~ * ~ ~|~ ~ Praise,|
 [B,,B,]2 [B,,B,]2 [B,,B,]2 z2 | [B,,B,]2 [B,,B,]2 [B,,B,]2 z2 | %18
w: glad praise, praise,|glad praise ~|
 [F,A,]2 [F,A,]>[F,A,] [F,A,]2 [F,A,]2 | [B,,B,]2 [B,,B,]>[B,,B,] [B,,B,]2 z2 | %20
w: ~ ~ ~ ~ ~|~ ~ ~ Praise,|
 [B,,B,]2 [B,,B,]2 [B,,B,]2 z2 | [B,,B,]2 [B,,B,]2 [B,,B,]2 [B,,D]2 |1 %22
w: glad praise, praise,|glad praise Be Thine|
 [C,B,]2 [C,A,]2 [C,G,]2 [C,B,]2 | A,4 D,2 C,2 :|2 [E,B,]2 [C,E]2 [F,D]2 [F,C]2 || [B,,D]8 |] %26
w: for ev- er, ev-|er- more; *|||
V:4
 x8 | x8 | x8 | x8 | x8 | x8 | x8 | x8 | G,2 B,2 A,2 D,2 | G,2 B,2 (A,^F,) D,2 | x8 | x8 | x8 | %13
 x8 | E,2 x6 | x8 |: x8 | x8 | x8 | x8 | x8 | x8 |1 x8 | F,2 E,2 x4 :|2 x8 || x8 |] %26

